**kern	**dynam
*part1	*
*staff2	*staff1/2
*ICklav	*
*Ipiano	*
*I"	*
*>[A,A,B,B]	*>[A,A,B,B]
*>norep[A,B]	*>norep[A,B]
*>A	*>A
*clefF4	*
*k[b-]	*
*F:	*
*M3/4	*
*MM144	*
8F(L	p
8A	.
8c	.
8A	.
8c	.
8AJ	.
=	=
8FL	.
8c	.
8e-	.
8c	.
8e-	.
8c)J	.
=	=
8F(L	.
8B-	.
8d	.
8B-	.
8d	.
8B-J	.
=	=
8FL	.
8G	.
8B-	.
8G	.
8B-	.
8G)J	.
=	=
4F 4A	.
4r	.
4r	.
=	=
.2r	.
=	=
4F(	.
4AA	.
4D	.
=	=
4GG	.
.4C	.
8AA)	.
=	=
4FF(>	.
4D	.
4BB-)	.
=	=
4AA	.
4r	.
4D	.
=	=
4BB-	.
4r	.
4C	.
=	=
4FF	.
4r	.
*clefG2	*
.8a(L .8cc(L	p
16gJk 16b-Jk	.
=	=
4f) 4a)	.
4f 4a	.
.8f(L .8a(L	.
16cJk 16gJk	.
=	=
4A) 4f)	.
4A 4f	.
4A( 4f(	.
=	=
4c) 4g)	.
4c' 4g'	.
4c' 4g'	.
=	=
4c( 4g(	.
4f) 4a)	.
.8a(L .8cc(L	.
16gJk 16b-Jk	.
=	=
4f) 4a)	.
4f 4a	.
.8f(L .8a(L	.
16cJk 16gJk	.
=	=
4A) 4f)	.
4A 4f	.
4A 4f	.
=	=
4c 4g	.
4r	.
4c( 4g(	.
=	=
4f)	.
4r	.
4c( 4e( 4b-(	.
=	=
4f) 4a)	.
4r	.
*clefF4	*
4C( 4E( 4B-(	.
=	=
4F) 4A)	.
4r	.
4CC#( 4C#(	f
=	=
8DD) 8D)	.
8F(L	.
8A	.
8F	.
8A	.
8FJ	.
=	=
8DL	.
8F	.
8A	.
8F	.
8A	.
8F)J	.
=	=
4EE 4E	.
4E 4G 4B- 4c#	.
4r	.
=	=
4EE 4E	.
4E 4G 4B- 4c#	.
4r	.
=	=
8F(L	.
8A	.
8d	.
8A	.
8d	.
8AJ	.
=	=
8FL	.
8A	.
8d	.
8A	.
8d	.
8A)J	.
=	=
4DD 4D	.
4D 4F 4A- 4Bn	.
4r	.
=	=
4DD 4D	.
4D 4F 4A- 4Bn	.
4r	.
=	=
8E-(L	.
8G	.
8c	.
8G	.
8c	.
8GJ	.
=	=
8E-L	.
8G	.
8c	.
8G	.
8c	.
8G)J	.
=	=
8C(L	.
8E-	.
8A-	.
8E-	.
8A-	.
8E-J	.
=	=
8CL	.
8E-	.
8A-	.
8E-	.
8A-	.
8E-)J	.
=	=
8AA-(L	.
8C	.
8E-	.
8C	.
8E-	.
8CJ	.
=	=
8AA-L	.
8C	.
8E-	.
8C	.
8E-	.
8C)J	.
=	=
8GG(L	.
8BBn	.
8D	.
8G	.
8C	.
8E-J	.
=	=
8GGL	.
8BBn	.
8D	.
8G	.
8C	.
8E-)J	.
=	=
.4GG .4G	.
16A-(L	.
16GJ	.
16FL	.
16E-	.
16D	.
16CJ	.
=	=
4G')	.
4GG'	.
4r	.
=	=
64C(>LL>q	.
64GJq	.
4c)	p
4r	.
4r	.
=	=
64G(>LL>q	.
64dJq	.
4f)	.
4r	.
4r	.
=	=
4C	.
4E	.
4G	.
=	=
4c	.
4C	.
4r	.
=	=
4A(	.
4c) 4f)	.
4r	.
=	=
4Bn(	.
4d) 4g)	.
4r	.
=	=
4c	.
4A( 4c(	.
4F) 4dn)	.
=	=
4G 4Bn	.
4r	.
4r	.
*clefG2	*
=	=
12c(L	.
12e	.
12gJ	.
12cL	.
12e	.
12gJ	.
12cL	.
12e	.
12gJ	.
=	=
12BnL	.
12d	.
12gJ	.
12BL	.
12d	.
12gJ	.
12BL	.
12f	.
12gJ	.
=	=
4c) 4e)	.
*clefF4	*
4E	.
4G	.
=	=
4c	.
4G	.
4C	.
*clefG2	*
=	=
8A(L	f
8c	.
8f	.
8c	.
8A	.
8cJ	.
=	=
8BnL	.
8d	.
8g	.
8d	.
8B	.
8d)J	.
=	=
4c	.
*clefF4	*
4F 4dn	.
4G 4f	.
=	=
4c 4e	.
4e	p
4c	.
=	=
4d	.
4Bn	.
4G	.
=	=
4C	.
4E-	.
4C	.
=	=
4D	.
4BBn	.
4GG	.
=	=
4CC 4C	fp
4E-	.
4G	.
=	=
4FF 4F	fp
4A-	.
4c	.
=	=
4BBB-X 4BB-X	fp
4D	.
4F	.
=	=
4EE- 4E-	fp
4G	.
4B-	.
=	=
4AAA- 4AA-	fp
4A-	.
4DD 4D	fp
=	=
4d	.
4GGG 4GG	fp
4G	.
=	=
4A-(	.
4G	.
4F#	.
=	=
4G)	.
4r	.
8r	.
8F#(	.
=	=
4G)	.
4r	.
8r	.
8F#(	.
=	=
8GL	.
8F#	.
8G	.
8F#	.
8G	.
8F#J	.
=	=
4G)	.
4r	.
4r	.
=	=
4Fn	.
4F	.
4F	.
=	=
2F(	.
4C)	.
=	=
4GG	.
4GG	.
4GG	.
=	=
2GG(	.
4AA)	.
=	=
4FF	.
4GG	.
4GG	.
=	=
4C	.
4r	.
4r	.
=	=
4c 4f	.
4c 4f	.
4c 4f	.
=	=
*^	*
2f(	.2c	.
4e)	.	.
=	=	=
4d	4G	.
4d	4G	.
4d	4G	.
=	=	=
2d(	2G(	.
4c)	4A)	.
*v	*v	*
=	=
4F(	.
4G	.
4F)	.
=	=
8EE 8E	fp
8r	.
8G#	.
8r	.
8A	.
8r	.
=	=
8F	.
8r	.
8Gn	.
8r	.
8F	.
8r	.
=	=
4EE 4E	.
.	f
4GG# 4G#	.
4AA 4A	.
=	=
4FF 4F	.
4GGn 4Gn	.
4GG 4G	.
=	=
16C(L	.
16E	.
16G	.
16cJ	.
16CL	.
16E	.
16G	.
16cJ	.
16CL	.
16E	.
16G	.
16cJ	.
=	=
16CL	.
16E	.
16G	.
16cJ	.
16CL	.
16E	.
16G	.
16cJ	.
16CL	.
16F	.
16G	.
16cJ	.
=	=
16CL	.
16E	.
16G	.
16cJ	.
16CL	.
16E	.
16G	.
16cJ	.
16CL	.
16E	.
16G	.
16cJ	.
=	=
16CL	.
16E	.
16G	.
16cJ	.
16CL	.
16E	.
16G	.
16cJ	.
16CL	.
16F	.
16G	.
16c)J	.
=	=
4C 4E 4G 4c	.
.4E .4e	sf
8GG# 8G#	.
=	=
4AA 4A	.
.4C .4c	sf
8E	.
=	=
.8F(LT	.
32EL	.
32DJ	.
4Gn)	.
4GG 4G	.
=	=
4C 4c	.
4CC 4C	.
4r	.
=:|!|:	=:|!|:
*>B	*>B
4r	p
4E(	.
4C)	.
=	=
.2G	.
=	=
4r	.
4E(	.
4C)	.
=	=
.2G	.
=	=
4F 4A 4d	.
4r	.
4r	.
=	=
4F 4A 4d	.
4r	.
4r	.
=	=
.2G .2d .2f	.
=	=
4c 4e	.
4r	.
4r	.
=	=
4r	f
4E(	.
4C)	.
=	=
.2GG .2G	.
=	=
4r	.
4E(	.
4C)	.
=	=
.2GG .2G	.
=	=
4FF 4AA 4D	.
4r	.
4r	.
=	=
4FF 4AA 4D	.
4r	.
4r	.
=	=
4GG 4D 4F	>
4r	.
4r	]
=	=
4C 4E	.
.	p
4e	.
4c	.
=	=
4d	.
4Bn	.
4G	.
=	=
4C	.
4E-	.
4C	.
=	=
4D	.
4BBn	.
4GG	.
=	=
4CC 4C	fp
4c	.
4C	.
=	=
4AAA 4AA	fp
4A	.
4AA	.
=	=
4BBB-X 4BB-X	fp
4B-	.
4BB-	.
=	=
4FFF# 4FF#	fp
4F#	.
4FF#	.
=	=
4GGG 4GG	fp
4G	.
4GG	.
=	=
4EEn 4En	fp
4e	.
4E	.
=	=
4FFn 4Fn	fp
4f	.
4F	.
=	=
4CC# 4C#	fp
4c#	.
4C#	.
=	=
4DD 4D	fp
4d	.
4D	.
=	=
4BBB- 4BB-	fp
4B-	.
4BB-	.
=	=
4AA	.
4r	.
*clefG2	*
8r	.
8g#(	.
=	=
4a)	.
4r	.
*clefF4	*
8r	.
8G#(	.
=	=
8AL	.
8G#	.
8A	.
8G#	.
8A	.
8G#J	.
=	=
4A)	.
4r	.
4r	.
=	=
8A(L	pp
8G#	.
8A	.
8G#	.
8A	.
8G#J	.
=	=
4A)	.
4r	.
4r	.
=	=
*^	*
.2B-X[	8Gn(L	f
.	8A	.
.	8G	.
.	8A	.
.	8G	.
.	8AJ	.
=	=	=
4B-]	4G)	.
2ryy	4r	.
.	4r	.
*clefG2	*clefG2	*
=	=	=
8g(L	.2c[	p
8f#	.	.
8g	.	.
8f#	.	.
8g	.	.
8f#J	.	.
=	=	=
4g)	4c]	.
4r	2ryy	.
4r	.	.
*clefF4	*clefF4	*
*v	*v	*
=	=
8F(L	p
8A	.
8c	.
8A	.
8c	.
8AJ	.
=	=
8FL	.
8c	.
8e-	.
8c	.
8e-	.
8c)J	.
=	=
8F(L	.
8B-	.
8d	.
8B-	.
8d	.
8B-J	.
=	=
8FL	.
8G	.
8B-	.
8G	.
8B-)	.
8GJ	.
=	=
4F 4A	.
4r	.
4r	.
=	=
.2r	.
=	=
4F(	.
4AA	.
4D	.
=	=
4GG	.
.4C	.
8AA)	.
=	=
4FF(>	.
4D	.
4BB-)	.
=	=
4AA	.
4r	.
4D	.
=	=
4BB-	.
4r	.
4C	.
=	=
4FF	.
4r	.
*clefG2	*
.8a(L .8cc(L	p
16gJk 16b-Jk	.
=	=
4f) 4a)	.
4f 4a	.
.8f(L .8a(L	.
16cJk 16gJk	.
=	=
4A) 4f)	.
4A 4f	.
4A( 4f(	.
=	=
4c) 4g)	.
4c' 4g'	.
4c' 4g'	.
=	=
4c( 4g(	.
4f) 4a)	.
.8a(L .8cc(L	.
16gJk 16b-Jk	.
=	=
4f) 4a)	.
4f 4a	.
.8f(L .8a(L	.
16cJk 16gJk	.
=	=
4A) 4f)	.
4A 4f	.
4A 4f	.
=	=
4c 4g	.
4r	.
4c( 4g(	.
=	=
4f)	.
4r	.
4c( 4e( 4b-(	.
=	=
4f) 4a)	.
4r	.
*clefF4	*
4C( 4E( 4B-(	.
=	=
4F) 4A)	.
4r	.
4CC#( 4C#(	f
=	=
8DD) 8D)	.
8F(L	.
8A	.
8F	.
8A	.
8FJ	.
=	=
8DL	.
8F	.
8A	.
8F	.
8A)	.
8FJ	.
=	=
4EE 4E	.
4E 4G 4B- 4c#	.
4r	.
=	=
4EE 4E	.
4E 4G 4B- 4c#	.
4r	.
=	=
8F(L	.
8A	.
8d	.
8A	.
8d	.
8AJ	.
=	=
8FL	.
8A	.
8d	.
8A	.
8d	.
8A)J	.
=	=
4DD 4D	.
4D 4F 4A- 4Bn	.
4r	.
=	=
4DD 4D	.
4D 4F 4A- 4Bn	.
4r	.
=	=
8E-(L	.
8G	.
8c	.
8G	.
8c	.
8GJ	.
=	=
8E-L	.
8G	.
8c	.
8G	.
8c	.
8G)J	.
=	=
4EE-	.
4E- 4G- 4An 4c	.
4r	.
=	=
4EE-	.
4E- 4G- 4A 4c	.
4r	.
=	=
8D-(L	.
8F	.
8B-	.
8F	.
8B-	.
8FJ	.
=	=
8D-L	.
8F	.
8B-	.
8F	.
8B-	.
8F()J	.
=	=
8CL	.
8F	.
8An	.
8F	.
8A	.
8FJ	.
=	=
8CL	.
8F	.
8A	.
8F	.
8A	.
8F)J	.
=	=
8BBn(L	.
8F	.
8A-	.
8F	.
8A-	.
8FJ	.
=	=
8BBnL	.
8F	.
8A-	.
8F	.
8A-	.
8F)J	.
=	=
8CL	.
8En	.
8G(	.
8c	.
8F	.
8A-J	.
=	=
8CL	.
8E	.
8G	.
8c	.
8F	.
8A-)J	.
=	=
.4c	.
16d-(L	.
16cJ	.
16B-L	.
16A-	.
16G	.
16FJ	.
=	=
4c')	.
4CC' 4C'	.
4r	.
=	=
64FF(>LL>q	.
64CJq	.
4F)	p
4r	.
4r	.
=	=
64C(>LL>q	.
64GJq	.
4B-)	.
4r	.
4r	.
=	=
4FF	.
4AA	.
4C	.
=	=
4F	.
4FF	.
4r	.
=	=
4D(	.
4F) 4B-)	.
4r	.
=	=
4E(	.
4G) 4c)	.
4r	.
=	=
4F	.
4D 4F	.
4BB- 4G	.
=	=
4C 4E	.
4r	.
4r	.
=	=
12F(L	.
12A	.
12cJ	.
12FL	.
12A	.
12cJ	.
12FL	.
12A	.
12cJ	.
=	=
12EL	.
12G	.
12cJ	.
12EL	.
12G	.
12cJ	.
12EL	.
12B-	.
12cJ	.
=	=
4F) 4A)	.
4A	.
4c	.
=	=
4f	.
4c	.
4F	.
*clefG2	*
=	=
8d(L	f
8f	.
8b-	.
8f	.
8d	.
8fJ	.
=	=
8eL	.
8g	.
8cc	.
8g	.
8e	.
8g)J	.
=	=
4f	.
4B- 4gn	.
4c 4b-	.
=	=
4f 4a	.
.	p
4a	.
4f	.
=	=
4g	.
4e	.
4c	.
*clefF4	*
=	=
4F	.
4A-	.
4F	.
=	=
4G	.
4E	.
4C	.
=	=
4FF 4F	fp
4A-	.
4c	.
=	=
4BB- 4B-	fp
4d-	.
4f	.
=	=
4EE- 4E-	fp
4G	.
4B-	.
=	=
4AA- 4A-	fp
4c	.
4e-	.
=	=
4DD- 4D-	fp
4d-	.
4GG 4G	fp
=	=
4g	.
4CC 4C	fp
4c	.
=	=
4d-(	.
4c	.
4Bn	.
=	=
4c)	.
4r	.
8r	.
8Bn(	.
=	=
4c)	.
4r	.
8r	.
8Bn(	.
=	=
8cL	.
8Bn	.
8c	.
8B	.
8c	.
8BJ	.
=	=
4c)	.
4r	.
4r	.
=	=
4B-X	.
4B-	.
4B-	.
=	=
2B-(	.
4F)	.
=	=
4C	.
4C	.
4C	.
=	=
2C(>	.
4D)	.
=	=
4BB-	.
4C	.
4C	.
=	=
4F	.
4r	.
4r	.
*clefG2	*
=	=
4f 4b-	.
4f 4b-	.
4f 4b-	.
=	=
*^	*
2b-(	.2f	.
4a)	.	.
=	=	=
4g	4c	.
4g	4c	.
4g	4c	.
=	=	=
2g(	2c(	.
4f)	4d)	.
*clefF4	*clefF4	*
*v	*v	*
=	=
4B-(	.
4c	.
4B-)	.
=	=
8AA 8A	fp
8r	.
8c#	.
8r	.
8d	.
8r	.
=	=
8B-	.
8r	.
8cn	.
8r	.
8B-	.
8r	.
=	=
8AA 8A	.
.	f
8r	.
8C# 8c#	.
8r	.
8D 8d	.
8r	.
=	=
8BB- 8B-	.
8r	.
8Cn 8cn	.
8r	.
8CC 8C	.
8r	.
=	=
16FF(L	.
16AA	.
16C	.
16FJ	.
16FFL	.
16AA	.
16C	.
16FJ	.
16FFL	.
16AA	.
16C	.
16FJ	.
=	=
16FFL	.
16AA	.
16C	.
16FJ	.
16FFL	.
16AA	.
16C	.
16FJ	.
16FFL	.
16BB-	.
16C	.
16FJ	.
=	=
16FFL	.
16AA	.
16C	.
16FJ	.
16FFL	.
16AA	.
16C	.
16FJ	.
16FFL	.
16AA	.
16C	.
16FJ	.
=	=
16FFL	.
16AA	.
16C	.
16FJ	.
16FFL	.
16AA	.
16C	.
16FJ	.
16FFL	.
16BB-	.
16C	.
16F)J	.
=	=
4FF 4AA 4C 4F	.
.4AA .4A	sf
8C# 8c#	.
=	=
4D 4d	.
.4F .4f	sf
8A	.
=	=
.8B-(LT	.
32AL	.
32GJ	.
4cn)	.
4C 4c	.
=	=
4F 4f	.
4FF 4F	.
4r	.
==:|!	==:|!
*-	*-
